icons/book-open-fill.svg

<svg viewBox="0 0 24 24" fill="currentColor" xmlns="http://www.w3.org/2000/svg"><path d="M21 21H13V6C13 4.34315 14.3431 3 16 3H21C21.5523 3 22 3.44772 22 4V20C22 20.5523 21.5523 21 21 21ZM11 21H3C2.44772 21 2 20.5523 2 20V4C2 3.44772 2.44772 3 3 3H8C9.65685 3 11 4.34315 11 6V21ZM11 21H13V23H11V21Z"/></svg>

<svg xmlns="http://www.w3.org/2000/svg" viewBox="0 0 24 24">
    <g>
        <path fill="none" d="M0 0h24v24H0z"/>
        <path d="M21 21h-8V6a3 3 0 0 1 3-3h5a1 1 0 0 1 1 1v16a1 1 0 0 1-1 1zm-10 0H3a1 1 0 0 1-1-1V4a1 1 0 0 1 1-1h5a3 3 0 0 1 3 3v15zm0 0h2v2h-2v-2z"/>
    </g>
</svg>
